src/symbolic/status/weather-storm-symbolic.svg

<svg xmlns="http://www.w3.org/2000/svg" width="16" height="16"><path d="M6 7v5h1v4l3-5H9l1.5-4z" fill="#444"/><path d="M8 0C5.93 0 4.17 1.27 3.41 3.06 1.48 3.35 0 4.99 0 7c0 2.21 1.79 4 4 4h1V6h6.94l-1.5 4h1.33l-.6 1h1.33c1.93 0 3.5-1.57 3.5-3.5 0-1.8-1.35-3.27-3.09-3.47C12.45 1.74 10.43 0 8 0z" fill="#444"/></svg>

<svg xmlns="http://www.w3.org/2000/svg" width="16" height="16" version="1.1">
 <path style="fill:#444444" d="M 6,7 V 12 H 7 V 16 L 10,11 H 9 L 10.5,7 Z"/>
 <path style="fill:#444444" d="M 8,0 C 5.93,0 4.17,1.27 3.41,3.06 1.48,3.35 0,4.99 0,7 0,9.21 1.79,11 4,11 H 5 V 6 H 11.94 L 10.44,10 H 11.77 L 11.17,11 H 12.5 C 14.43,11 16,9.43 16,7.5 16,5.7 14.65,4.23 12.91,4.03 12.45,1.74 10.43,0 8,0 Z"/>
</svg>
